X: 32754
T: Polska Efter Jöns Persson
R: waltz
M: 3/4
K: Dminor
|:Ad de/d/ c/d/c/B/|Ad d^c/d/ e2|Af fe/d/ fe|d^c/d/ e/f/e/d/ cA|
Ad de/d/ c/d/c/B/|Ad d^c/d/ e2|Af fe/d/ fa/f/|e/g/e/^c/ d4:|
|:Aa ab/a/ g/a/g/e/|f/e/f/g/ a^c de|ef fe/d/ fe|d^c/d/ e/f/e/d/ ^cA|
Aa ab/a/ g/a/g/e/|f/e/f/g/ a^c de|ef fe/d/ fa/f/|e/g/e/^c/ d4:|

